X: 2
T: The Mathematician
R: hornpipe
M: 4/4
L: 1/8
K: Gmaj
DC|B,C^CD BGDB,|CD_E=E cAEG|Fedc BAGF|(3GBA (3GFE D2DC|B,C^CD BGDB,|CD_E=E cAEG|Fedc BAGF|G2B2G2::d2|gdBG DB,G,=F,|E,^G,A,C EAce|aecA ECA,G,|F,A,DF Acfa|bgdB GDB,G,|CEGc egc'e|(3dba (3gfe (3ded (3cBA| [1 (3GBd (3gdB G2:| [2 G2B2G2||


Tune 1755	Setting 1755

